img/en-flag.svg

<?xml version="1.0" encoding="UTF-8" standalone="no"?>
<svg xmlns="http://www.w3.org/2000/svg" viewBox="0 0 45 30" width="900" height="600">
<clipPath id="s"><path d="M0,0 v30 h45 v-30 z"/>
</clipPath>
<clipPath id="t">
<path d="M22.5,15 h22.5 v15 z v15 h-22.5 z h-22.5 v-15 z v-15 h22.5 z"/>
</clipPath>
<g clip-path="url(#s)">
<path d="M0,0 v30 h45 v-30 z" fill="#012169"/>
<path d="M0,0 L45,30 M45,0 L0,30" stroke="#fff" stroke-width="6"/>
<path d="M0,0 L45,30 M45,0 L0,30" clip-path="url(#t)" stroke="#C8102E" stroke-width="4"/>
<path d="M22.5,0 v30 M0,15 h45" stroke="#fff" stroke-width="10"/>
<path d="M22.5,0 v30 M0,15 h45" stroke="#C8102E" stroke-width="6"/>
</g>
</svg>

<svg xmlns="http://www.w3.org/2000/svg" width="900" height="600" viewBox="0 0 45 30"><clipPath id="a"><path d="M0 0v30h45V0z"/></clipPath><clipPath id="b"><path d="M22.5 15H45v15zv15H0zH0V0zV0H45z"/></clipPath><g clip-path="url(#a)"><path fill="#012169" d="M0 0v30h45V0z"/><path stroke="#fff" stroke-width="6" d="m0 0 45 30m0-30L0 30"/><path stroke="#C8102E" stroke-width="4" d="m0 0 45 30m0-30L0 30" clip-path="url(#b)"/><path stroke="#fff" stroke-width="10" d="M22.5 0v30M0 15h45"/><path stroke="#C8102E" stroke-width="6" d="M22.5 0v30M0 15h45"/></g></svg>
